X:077
T:Scarfuin (?)
S:Midi file off website
N:Simplified (inadequate ABC skills)
M:3/4
L:1/8
K:Em
B4 d2|e2   ef g2|g2  f2   ed  | ef g2 f2|
e2  d<B de|e2 d<B  de|e2  d<B (3def| e4    de|
B2 d>e d<A|B2 d>e d<A|B<B (3def  e2|d<B-B2 EF|
G>F GA B^c|d2  d2  BA|G<F E<D    E2| F2 E2 E2|]
<end>
<start>
